assets/icons/24px/stroke/arrow-bend-right-down-24px.svg

<svg width="24" height="24" viewBox="0 0 24 24" fill="none" xmlns="http://www.w3.org/2000/svg">
<path fill-rule="evenodd" clip-rule="evenodd" d="M11.4912 8.72836C10.9826 8.5177 10.4029 8.5 8.68629 8.5H3C2.44772 8.5 2 8.05228 2 7.5C2 6.94771 2.44772 6.5 3 6.5H8.68629C8.75051 6.5 8.81388 6.49997 8.87643 6.49994C10.3268 6.49924 11.3347 6.49876 12.2566 6.8806C13.1784 7.26243 13.8908 7.97549 14.9158 9.00155C14.9601 9.04579 15.0048 9.09062 15.0503 9.13603L20 14.0858V8.5C20 7.94771 20.4477 7.5 21 7.5C21.5523 7.5 22 7.94771 22 8.5V16.5C22 17.0523 21.5523 17.5 21 17.5H13C12.4477 17.5 12 17.0523 12 16.5C12 15.9477 12.4477 15.5 13 15.5L18.5858 15.5L13.636 10.5502C12.4222 9.33643 11.9998 8.93902 11.4912 8.72836Z" fill="white"/>
</svg>

<svg width="24" height="24" fill="none" xmlns="http://www.w3.org/2000/svg"><path fill-rule="evenodd" clip-rule="evenodd" d="M11.491 8.728c-.508-.21-1.088-.228-2.805-.228H3a1 1 0 0 1 0-2h5.876c1.45 0 2.459-.001 3.38.38.922.382 1.635 1.095 2.66 2.122l.134.134 4.95 4.95V8.5a1 1 0 1 1 2 0v8a1 1 0 0 1-1 1h-8a1 1 0 1 1 0-2h5.586l-4.95-4.95C12.422 9.336 12 8.94 11.491 8.728z" fill="#fff"/></svg>
